_site/_assets/img/icons/s-twitter.svg

<svg width="48" height="48" viewBox="0 0 48 48" fill="none" xmlns="http://www.w3.org/2000/svg">
<path fill-rule="evenodd" clip-rule="evenodd" d="M24 46C36.1503 46 46 36.1503 46 24C46 11.8497 36.1503 2 24 2C11.8497 2 2 11.8497 2 24C2 36.1503 11.8497 46 24 46ZM23.7054 20.5339L23.6534 19.676C23.4973 17.4526 24.8673 15.4218 27.0349 14.634C27.8326 14.3538 29.1853 14.3188 30.0697 14.5639C30.4165 14.669 31.0755 15.0191 31.5437 15.3342L32.3934 15.912L33.3298 15.6144C33.8501 15.4568 34.5437 15.1942 34.8559 15.0191C35.1507 14.8616 35.4108 14.774 35.4108 14.8265C35.4108 15.1242 34.7692 16.1396 34.2316 16.6998C33.5032 17.4876 33.7113 17.5577 35.1853 17.0324C36.0698 16.7348 36.0871 16.7348 35.9137 17.0675C35.8096 17.2425 35.2721 17.8553 34.6998 18.4155C33.7287 19.3784 33.6767 19.4834 33.6767 20.2888C33.6767 21.5318 33.087 24.1228 32.4974 25.5409C31.4049 28.202 29.0639 30.9506 26.7228 32.3337C23.4279 34.277 19.0406 34.7672 15.3469 33.6292C14.1156 33.2441 12 32.2637 12 32.0886C12 32.0361 12.6416 31.966 13.422 31.9485C15.0521 31.9135 16.6822 31.4583 18.0695 30.653L19.0059 30.0928L17.9307 29.7251C16.4047 29.1999 15.0347 27.9919 14.6879 26.854C14.5839 26.4863 14.6185 26.4688 15.5897 26.4688L16.5955 26.4513L15.7457 26.0486C14.7399 25.5409 13.8208 24.6831 13.37 23.8077C13.0405 23.1775 12.6243 21.5843 12.7457 21.4618C12.7804 21.4092 13.1445 21.5143 13.5607 21.6543C14.7573 22.092 14.9133 21.987 14.2197 21.2517C12.9191 19.9211 12.5202 17.9428 13.1445 16.0695L13.4393 15.2292L14.5839 16.3672C16.9249 18.6606 19.6822 20.0262 22.8383 20.4288L23.7054 20.5339Z" fill="white"/>
</svg>

<svg width="48" height="48" fill="none" xmlns="http://www.w3.org/2000/svg"><path fill-rule="evenodd" clip-rule="evenodd" d="M24 46c12.15 0 22-9.85 22-22S36.15 2 24 2 2 11.85 2 24s9.85 22 22 22zm-.295-25.466l-.052-.858c-.156-2.223 1.214-4.254 3.382-5.042.798-.28 2.15-.315 3.035-.07.346.105 1.006.455 1.474.77l.85.578.936-.298c.52-.157 1.214-.42 1.526-.595.295-.157.555-.245.555-.193 0 .298-.642 1.314-1.18 1.874-.728.788-.52.858.954.332.885-.297.902-.297.729.035-.104.175-.642.788-1.214 1.349-.971.962-1.023 1.067-1.023 1.873 0 1.243-.59 3.834-1.18 5.252-1.092 2.661-3.433 5.41-5.774 6.793-3.295 1.943-7.682 2.433-11.376 1.295C14.116 33.244 12 32.264 12 32.09c0-.053.642-.123 1.422-.14a9.764 9.764 0 004.648-1.296l.936-.56-1.075-.368c-1.526-.525-2.896-1.733-3.243-2.871-.104-.368-.07-.385.902-.385l1.006-.018-.85-.402c-1.006-.508-1.925-1.366-2.376-2.241-.33-.63-.746-2.224-.624-2.346.034-.053.399.052.815.192 1.196.438 1.352.333.659-.402-1.3-1.33-1.7-3.31-1.075-5.182l.294-.84 1.145 1.137c2.34 2.294 5.098 3.66 8.254 4.062l.867.105z" fill="#fff"/></svg>
